src/assets/alert.svg

<svg height="19" viewBox="0 0 22 19" width="22" xmlns="http://www.w3.org/2000/svg"><path d="m31 32h-2v-4h2zm0 4h-2v-2h2zm-12 3h22l-11-19z" fill="#bf1600" transform="translate(-19 -20)"/></svg>

<?xml version="1.0" encoding="UTF-8"?>
<svg width="22px" height="19px" viewBox="0 0 22 19" version="1.1" xmlns="http://www.w3.org/2000/svg" xmlns:xlink="http://www.w3.org/1999/xlink">
    <g id="s" stroke="none" stroke-width="1" fill="none" fill-rule="evenodd">
        <g id="n" transform="translate(-19.000000, -20.000000)" fill="#bf1600" fill-rule="nonzero">
            <g id="w">
                <g>
                    <path d="M31,32 L29,32 L29,28 L31,28 L31,32 Z M31,36 L29,36 L29,34 L31,34 L31,36 Z M19,39 L41,39 L30,20 L19,39 Z" id="alert"></path>
                </g>
            </g>
        </g>
    </g>
</svg>
